docs/local/img/sprites/sun.svg

<svg width="20" height="20" viewBox="0 0 20 20" xmlns="http://www.w3.org/2000/svg">
<path d="M10.0007 0.833496C10.4609 0.833496 10.834 1.20659 10.834 1.66683V3.3335C10.834 3.79373 10.4609 4.16683 10.0007 4.16683C9.54041 4.16683 9.16732 3.79373 9.16732 3.3335V1.66683C9.16732 1.20659 9.54041 0.833496 10.0007 0.833496Z"/>
<path fill-rule="evenodd" clip-rule="evenodd" d="M5.83398 10.0002C5.83398 7.69898 7.69946 5.8335 10.0007 5.8335C12.3018 5.8335 14.1673 7.69898 14.1673 10.0002C14.1673 12.3013 12.3018 14.1668 10.0007 14.1668C7.69946 14.1668 5.83398 12.3013 5.83398 10.0002ZM10.0007 7.50016C8.61994 7.50016 7.50065 8.61945 7.50065 10.0002C7.50065 11.3809 8.61994 12.5002 10.0007 12.5002C11.3814 12.5002 12.5007 11.3809 12.5007 10.0002C12.5007 8.61945 11.3814 7.50016 10.0007 7.50016Z"/>
<path d="M10.834 16.6668C10.834 16.2066 10.4609 15.8335 10.0007 15.8335C9.54041 15.8335 9.16732 16.2066 9.16732 16.6668V18.3335C9.16732 18.7937 9.54041 19.1668 10.0007 19.1668C10.4609 19.1668 10.834 18.7937 10.834 18.3335V16.6668Z"/>
<path d="M3.51988 3.51918C3.84531 3.19375 4.37295 3.19375 4.69839 3.51918L5.87339 4.69418C6.19882 5.01962 6.19882 5.54726 5.87339 5.8727C5.54795 6.19813 5.02031 6.19813 4.69488 5.8727L3.51988 4.69769C3.19444 4.37226 3.19444 3.84462 3.51988 3.51918Z"/>
<path d="M15.3067 14.1275C14.9813 13.8021 14.4536 13.8021 14.1282 14.1275C13.8028 14.4529 13.8028 14.9806 14.1282 15.306L15.3032 16.481C15.6286 16.8064 16.1563 16.8064 16.4817 16.481C16.8071 16.1556 16.8071 15.6279 16.4817 15.3025L15.3067 14.1275Z"/>
<path d="M0.833984 10.0002C0.833984 9.53993 1.20708 9.16683 1.66732 9.16683H3.33398C3.79422 9.16683 4.16732 9.53993 4.16732 10.0002C4.16732 10.4604 3.79422 10.8335 3.33398 10.8335H1.66732C1.20708 10.8335 0.833984 10.4604 0.833984 10.0002Z"/>
<path d="M16.6673 9.16683C16.2071 9.16683 15.834 9.53993 15.834 10.0002C15.834 10.4604 16.2071 10.8335 16.6673 10.8335H18.334C18.7942 10.8335 19.1673 10.4604 19.1673 10.0002C19.1673 9.53993 18.7942 9.16683 18.334 9.16683H16.6673Z"/>
<path d="M5.87339 14.1275C6.19882 14.4529 6.19882 14.9806 5.87339 15.306L4.69839 16.481C4.37295 16.8064 3.84531 16.8064 3.51988 16.481C3.19444 16.1556 3.19444 15.6279 3.51988 15.3025L4.69488 14.1275C5.02031 13.8021 5.54795 13.8021 5.87339 14.1275Z"/>
<path d="M16.4817 4.69769C16.8071 4.37226 16.8071 3.84462 16.4817 3.51918C16.1563 3.19375 15.6286 3.19375 15.3032 3.51918L14.1282 4.69418C13.8028 5.01962 13.8028 5.54726 14.1282 5.8727C14.4536 6.19813 14.9813 6.19813 15.3067 5.87269L16.4817 4.69769Z"/>
</svg>

<svg width="20" height="20" viewBox="0 0 20 20" xmlns="http://www.w3.org/2000/svg"><path d="M10 .833c.46 0 .834.374.834.834v1.666a.833.833 0 01-1.667 0V1.667c0-.46.373-.834.834-.834z"/><path fill-rule="evenodd" clip-rule="evenodd" d="M5.834 10a4.167 4.167 0 118.333 0 4.167 4.167 0 01-8.333 0zm4.167-2.5a2.5 2.5 0 100 5 2.5 2.5 0 000-5z"/><path d="M10.834 16.667a.833.833 0 00-1.667 0v1.666a.833.833 0 001.667 0v-1.666zM3.52 3.52a.833.833 0 011.178 0l1.175 1.174a.833.833 0 01-1.178 1.179L3.52 4.698a.833.833 0 010-1.179zm11.787 10.607a.833.833 0 00-1.179 1.179l1.175 1.175a.833.833 0 001.179-1.179l-1.175-1.175zM.834 10c0-.46.373-.833.833-.833h1.667a.833.833 0 010 1.667H1.667A.833.833 0 01.834 10zm15.833-.833a.833.833 0 000 1.667h1.667a.833.833 0 000-1.667h-1.667zm-10.794 4.96a.833.833 0 010 1.179l-1.175 1.175a.833.833 0 01-1.178-1.179l1.175-1.175a.833.833 0 011.178 0zm10.609-9.429a.833.833 0 00-1.179-1.179l-1.175 1.175a.833.833 0 001.179 1.179l1.175-1.175z"/></svg>
